X:1
T:Lochiel's Rant. Ru1.127
L:1/8
Q:1/2=60
M:2/2
I:linebreak $
K:D
V:1 treble 
V:1
|: g | eA A/A/A Te2 dg | BG G/G/G B d2 g | eA A/A/A Te2 dg | e>d Ba A/A/AA || g |$ %6
 dega{ga} b2 a>b | gd d/d/d gddg | dega{ga} b2 a>b | ge e/e/e geeg |$ dega (b/a/g) (a/g/e) | %11
 (g/e/d) (e/d/B) g d2 (g/a/) | b>gab e2 dg | BA A/A/A ge e2 |] %14
